!!!!SEGMENT: pl-kk--kk-i-387--002_anonim--alleluia-post-partum-virgo.krn
!!!cenid: 18xx:1416
!!!COM: Anonim
!!!COM-rismid: pe30004985
!!!CDT:
!!!CNT:
!!!OTL: Alleluia Post partum virgo
!!!PDT:
!!!AGN: Sacred
!!!SMS-siglum: PL-Kk
!!!SMS-shelfmark: Kk.I.387
!!!SMS-shelfwork: 002 W
!!!SMS-variant:
!!!SMS-altvar:
!!!NIFC-rismid: 1001138212
!!!URL-scan: http://repozytorium.nifc.pl/skany/pl-kk-nut--i-387
!!!ONB-nifc: Uwaga: No. 2
**kern	**text	**kern	**text	**kern	**text	**kern	**text
*part4	*part4	*part3	*part3	*part2	*part2	*part1	*part1
*staff4	*staff4	*staff3	*staff3	*staff2	*staff2	*staff1	*staff1
*Ibass	*	*Itenor	*	*Ialto	*	*Isoprn	*
*I"Basso.	*	*I"Tenore.	*	*I"Alto.	*	*I"Soprano.	*
*I'B	*	*I'T	*	*I'A	*	*I'S	*
*group1	*	*group1	*	*group1	*	*group1	*
*clefF4	*	*clefC4	*	*clefC3	*	*clefC1	*
*k[]	*	*k[]	*	*k[]	*	*k[]	*
*a:	*	*a:	*	*a:	*	*a:	*
*M3/2	*	*M3/2	*	*M3/2	*	*M3/2	*
=1	=1	=1	=1	=1	=1	=1	=1
*2\right	*	*2\right	*	*2\right	*	*2\right	*
!LO:TX:t=P:problem:all\right:global	!	!LO:TX:t=P:problem:all\right:global	!	!LO:TX:t=P:problem:all\right:global	!	!LO:TX:t=P:problem:all\right:global	!
1A	Al-	1A	Al-	1e	Al-	1cc	Al-
2c\	-le-	2G\	-le-	2e\	-le-	2ee\	-le-
=2	=2	=2	=2	=2	=2	=2	=2
1G	-lu-	1B	-lu-	1g	-lu-	1dd	-lu-
2C/	-ia	2c\	-ia	2g\	-ia,	2cc\	-ia,
=3	=3	=3	=3	=3	=3	=3	=3
4G\	al-	4G/	al-	4g\	al-	4b\	al-
4G\	-le-	4A/	-le-	4g\	-le-	4cc\	-le-
2G\	-lu-	2B\	-lu-	2g\	-lu-	2dd\	-lu-
2G\	-ia	2B\	-ia,	2g\	-ia	2dd\	-ia
=4	=4	=4	=4	=4	=4	=4	=4
1c	al-	1c	al-	1g	al-	1ee	al-
2G\	-le-	2B\	-le-	2g\	-le-	2dd\	-le-
=5	=5	=5	=5	=5	=5	=5	=5
1A	-lu-	1A	-lu-	1e	-lu-	1cc	-lu-
2E\	-ia,	2G#X/	-ia,	2e\	-ia	2b\	-ia,
=6	=6	=6	=6	=6	=6	=6	=6
4E\	al-	4G#X/	al-	4e\	al-	4b\	al-
4E\	-le-	4A/	-le-	4e\	-le-	4cc\	-le-
!LO:LB:g=original	!	!	!	!	!	!	!
2E\	-lu-	2B\	-lu-	2e\	-lu-	2dd\	-lu-
2E\	-ia,	2B\	-ia,	2e\	-ia	2dd\	-ia
!	!	!LO:LB:g=original	!	!LO:LB:g=original	!	!LO:LB:g=original	!
=7	=7	=7	=7	=7	=7	=7	=7
2.AA/	al-	2.c\	al-	2.e\	al-	2.ee\	al-
4BB/	.	4B\	.	4d\	.	4dd\	.
4C/	.	2A\	-le-	(4e\	-le-	2cc\	-le-
4D/	le-	.	.	4f\)	.	.	.
=8	=8	=8	=8	=8	=8	=8	=8
1E	-lu-	1G#X	-lu-	1e	-lu-	1b	-lu-
2AA/	-ia,	2A\	-ia	2e\	-ia,	2a\	-ia,
=9	=9	=9	=9	=9	=9	=9	=9
4E\	al-	4G#X/	al-	4e\	al-	4b\	al-
4E\	-le-	4A/	-le-	4e\	-le-	4cc\	-le-
2E\	-lu-	2B\	-lu-	2e\	-lu-	2dd\	-lu-
2E\	-ia	2B\	-ia	2e\	-ia	2dd\	-ia
=10	=10	=10	=10	=10	=10	=10	=10
2.AA/	al-	2.c\	al-	2.e\	al-	2.ee\	al-
4BB/	.	4B\	.	4d\	.	4dd\	.
4C/	.	2A\	-le-	4e\	-le-	2cc\	-le-
4D/	-le-	.	.	4f\	.	.	.
=11	=11	=11	=11	=11	=11	=11	=11
1.E	-lu-	1.G#X	-lu-	1.e	-lu-	1.b	-lu-
!LO:LB:g=original	!	!	!	!	!	!	!
=12	=12	=12	=12	=12	=12	=12	=12
2AA/	-ia,	2A\	-ia,	2e\	-ia,	2a,\	-ia.
2r	.	2r	.	2r	.	(2a\	Post
2r	.	2r	.	2r	.	2b\)	.
!	!	!	!	!LO:LB:g=original	!	!	!
=13	=13	=13	=13	=13	=13	=13	=13
!LO:TX:a:t=1.	!	!LO:TX:a:t=1.	!	!LO:TX:a:t=1.	!	!	!
1.r	.	1.r	.	1.r	.	2cc\	par-
.	.	.	.	.	.	2b\	.
.	.	.	.	.	.	2a\	-tum
!	!	!LO:LB:g=original	!	!	!	!LO:LB:g=original	!
=14	=14	=14	=14	=14	=14	=14	=14
2r	.	2r	.	2r	.	2ee\	Vir-
2E\	Post	2G#X/	Post	2e\	Post	2ee\	-go
2F#X\	.	2A/	.	2a\	.	2ee\	post
=15	=15	=15	=15	=15	=15	=15	=15
2G#X\	par-	2B\	par-	2e\	par-	1ee	par-
2F#X\	.	2A\	.	2a\	.	.	.
2E\	-tum	2G#X/	-tum	2e\	-tum	2ee\	-tum
=16	=16	=16	=16	=16	=16	=16	=16
1A	Vir-	1A	Vir-	1c	Vir-	1ee	Vir-
2A\	-go	2A\	-go	2c\	-go	2ee\	-go
=17	=17	=17	=17	=17	=17	=17	=17
2Gn\	in-	2B/	in-	2d\	in-	2b\	in-
2G\	-vi-	2Gn/	-vi-	2d\	-vi-	2b\	-vi-
2G\	-o-	2B\	-o-	2d\	-o-	2b\	-o-
!LO:LB:g=original	!	!	!	!	!	!	!
=18	=18	=18	=18	=18	=18	=18	=18
2c\	-la-	2G/	-la-	2e\	-la-	2cc\	-la-
2G\	-ta	2G/	-ta	2d\	-ta	2b\	-ta,
2C/	per	2G/	per-	2e\	per-	2cc\	per-
=19	=19	=19	=19	=19	=19	=19	=19
2F\	man-	2A/	-man-	(4f\	-man-	2cc\	-ma-
.	.	.	.	4e\)	.	.	.
2G\	-si-	1G	-si-	1d	-si-	2cc\	-nsi-
2GG/	.	.	.	.	.	2b\	.
!	!	!	!	!LO:LB:g=original	!	!	!
=20	=20	=20	=20	=20	=20	=20	=20
2C/	-sti,	2G/	-sti,	2e\	-,	2cc\	-sti,
2r	.	2r	.	2g\	De-	2ee\	De-
2r	.	2r	.	2g\	-i	2ee\	-i
!	!	!LO:LB:g=original	!	!	!	!LO:LB:g=original	!
=21	=21	=21	=21	=21	=21	=21	=21
!LO:TX:a:t=1.	!	!LO:TX:a:t=1.	!	!	!	!	!
1.r	.	1.r	.	4g\	Ge-	4ee\	Ge-
.	.	.	.	4f\	.	4dd\	.
.	.	.	.	4g\	.	4ee\	.
.	.	.	.	4a\	.	4ff\	.
.	.	.	.	4g\	.	4ee\	-ni-
.	.	.	.	4f\	.	4dd\	.
=22	=22	=22	=22	=22	=22	=22	=22
2r	.	2r	.	4e\	.	2cc\	-trix,
.	.	.	.	4d\	.	.	.
2c\	De-	2G/	De-	4e\	.	2cc\	De-
.	.	.	.	4f\	ni-	.	.
2c\	-i	2G/	-i	2e\	-trix,	2cc\	-i
=23	=23	=23	=23	=23	=23	=23	=23
4c\	Ge-	2.G/	ge-	4e\	Ge-	1.cc	Ge-
4B-X\	.	.	.	4d\	.	.	.
4c\	.	.	.	4e\	.	.	.
4d\	.	4G/	-ni-	4f\	.	.	.
4c\	.	2G/	-trix	4e\	.	.	.
4B-\	.	.	.	4d\	.	.	.
!LO:LB:g=original	!	!	!	!	!	!	!
=24	=24	=24	=24	=24	=24	=24	=24
4A\	.	2r	.	2c\	ni-	4cc\	.
4G\	.	.	.	.	.	4b-X\	.
4A\	.	2A\	De-	1f	(-trix)	4cc\	.
4B-X\	.	.	.	.	.	4dd\	.
4A\	.	2A\	-i	.	.	4cc\	.
4G\	.	.	.	.	.	4b-\	.
!	!	!	!	!LO:LB:g=original	!	!	!
=25	=25	=25	=25	=25	=25	=25	=25
2.F\	.	2.c\	ge-	2.f\	Ge-	2.a\	.
4F\	-ni-	4c\	-ni-	4f\	-ni-	4a\	-ni-
2F\	-trix	2c\	-trix,	2f\	-trix	2a\	-trix,
=26	=26	=26	=26	=26	=26	=26	=26
1D	in-	1d	in-	1f	in-	1b	in-
2C/	-ter-	2G/	-ter-	2e\	-ter-	2cc\	-ter-
!	!	!	!	!	!	!LO:LB:g=original	!
=27	=27	=27	=27	=27	=27	=27	=27
2BBn/	-ce-	2G/	-ce-	2f\	-ce-	2dd\	-ce-
2BB/	-de	2G/	-de	2f\	-de	2dd\	-de
2C/	pro	2G/	pro	2e\	pro	2cc\	pro
!	!	!LO:LB:g=original	!	!	!	!	!
=28	=28	=28	=28	=28	=28	=28	=28
2F\	no-	2A/	no-	1.d	no-	1cc	no-
2G\	.	1G	.	.	.	.	.
2GG/	.	.	.	.	.	2b\	.
=29	=29	=29	=29	=29	=29	=29	=29
2C/	-bis	2G/	-bis,	2e\	-bis,	2cc\	-bis
!LO:LB:g=original	!	!	!	!	!	!	!
2A\	in-	2A/	in-	2e\	in-	2cc\	in-
2E\	-ter-	2G#X/	-ter-	2e\	-ter-	2b\	-ter-
=30	=30	=30	=30	=30	=30	=30	=30
1A	-ce-	1A	-ce-	1e	-ce-	2.cc\	-ce-
.	.	.	.	.	.	4cc\	-de
2E\	-de	2G#X/	-de	2e\	-de	2b\	pro
=31	=31	=31	=31	=31	=31	=31	=31
2C/	pro	2A\	pro	2e\	pro	2cc\	no-
1D	no-	1d	no-	1f	no-	1b	.
=32	=32	=32	=32	=32	=32	=32	=32
!LO:TX:a:t=Alleluia Da Capo.	!	!LO:TX:a:t=Alleluia Da Capo.	!	!LO:TX:b:t=Alleluia Da Capo.	!	!LO:TX:a:t=Alleluia\nDa Capo.	!
1.E	-bis.	1.B	-bis,	1.e	-bis.	1.g#X	-bis.
==	==	==	==	==	==	==	==
*-	*-	*-	*-	*-	*-	*-	*-
!!!system-decoration: [(g1)]
!!!ENC:Anna Matuszewska
!!!END:2021-01-16
!!!ENC:Krzysztof Stępień
!!!END:2021-01-12
